X:1
%
T:Peggy's Dream
M:C|
L:1/8
R:
S:James Goodman music manuscript collection (mid-19th cent., County Cork, p. 79)
F:http://goodman.itma.ie/volume-one#?c=0&m=0&s=0&cv=82&z=-30.9994%2C387.5788%2C8849.1449%2C5360Z:AK/Fiddler's Companion
K:D
f2 ef gfec|dc A2A2 zf|gfed cdef|d3 c A2 zd|
f2 ef gfec|d2A2 ABAG|F2d2 cAFA|G3 F D2z2:|
|:F2 FD G2 FG|AGFG ABcA|d2d2 efec|d3c A2 AB/d/|
f2 ef gfec|d2A2 ABAG|F2d2 cAFA|G3 F D2z2:|
|:ef/g/|a2a2g2 ag|f2d2d2 fg|a2a2 fgag|g3f d2 fg|
agfa gfeg|fedc AcAG|F2d2 cAFA|G3F D2:|
|:dc|B2B2 cABG|FGAB c2 Bc|d2d2 efec|d3c A2 AB/d/|
f2 ef gfec|d2A2 ABAG|F2 d2 cAFA|G3 F D2:|]

